!!!!SEGMENT: pl-wtm--r-882-m--001_moniuszko-stanislaw--chor-sabaudczykow.krn
!!!cenid: 18xx:2870
!!!COM: Moniuszko, Stanisław
!!!COM-rismid: pe30008351
!!!CDT: 1819/05/05-1872/06/04
!!!CNT: Polish
!!!OTL: Chór Sabaudczyków
!!!PDT:
!!!AGN:
!!!SMS-siglum: PL-Wtm
!!!SMS-shelfmark: R 882/M
!!!SMS-shelfwork: 001 W
!!!SMS-variant:
!!!SMS-altvar:
!!!NIFC-rismid: 1001099288
!!!URL-scan: http://repozytorium.nifc.pl/skany/pl-wtm-nut--r882m
!!!ONB-nifc:
!!!key:
**kern	**text	**dynam	**kern	**text	**dynam	**kern	**text	**dynam
*part3	*part3	*part3	*part2	*part2	*part2	*part1	*part1	*part1
*staff3	*staff3	*	*staff2	*staff2	*	*staff1	*staff1	*
*Iempty	*	*	*Itenor	*	*	*Ialto	*	*
*I"Bas.	*	*	*I"Tenor.	*	*	*I"Alt.	*	*
*I'B	*	*	*I'T	*	*	*I'A	*	*
*	*	*	*ITrd8c12	*	*	*	*	*
*clefF4	*	*	*clefG2	*	*	*clefG2	*	*
*k[]	*	*	*k[]	*	*	*k[]	*	*
*A:	*	*	*A:	*	*	*A:	*	*
*M6/8	*	*	*M6/8	*	*	*M6/8	*	*
=1	=1	=1	=1	=1	=1	=1	=1	=1
!	!	!	!	!	!	!LO:TX:a:t=Od p Leszczyńskiego z Wilna grudzień 1892.	!	!
!	!	!	!	!	!	!LO:TX:a:t=Muzyka S&colon; Moniuszki.	!	!
!	!	!	!	!	!	!LO:TX:a:t=Chór Sabaudczyków	!	!
4A\	Da-	.	2.ryy	.	.	4e/	Da-	.
8A\	-lej	.	.	.	.	8e/	-lej	.
4A\	w Dro-	.	.	.	.	4e/	w Dro-	.
8A\	-gę	.	.	.	.	8e/	-gę	.
=2	=2	=2	=2	=2	=2	=2	=2	=2
4A\	czas	.	2.ryy	.	.	4e/	Czas	.
8A\	u-	.	.	.	.	8e/	u-	.
4A\	-cie-	.	.	.	.	4e/	-cie-	.
8A\	-ka	.	.	.	.	8e/	-ka	.
=3	=3	=3	=3	=3	=3	=3	=3	=3
!	!	!	!LO:TX:a:t=86d:color=blue	!	!	!	!	!
4A\	na-	.	2.ryy	.	.	4e/	na-	.
8A\	-da-	.	.	.	.	8e/	-da-	.
4A\	-rem-	.	.	.	.	4e/	-rem-	.
8A\	-nie	.	.	.	.	8e/	-nie	.
!!LO:LB:g=original
=4	=4	=4	=4	=4	=4	=4	=4	=4
4A\	się	.	4r	.	.	4e/	się	.
8A\	smu-	.	8r	.	.	8e/	smu-	.
4A\	-ci-	.	4r	.	.	4e/	-ci-	.
!	!	!	!LO:TX:t=P:problem=tenor zapisany w kluczu wiolinowym	!	!	!	!	!
8A\	-cie	.	8E/	Hej	.	8e/	-cie	.
=5	=5	=5	=5	=5	=5	=5	=5	=5
4A\	Da-	.	4A/	da-	.	4e/	Da-	.
8A\	-lej	.	8A/	-lej	.	8e/	-lej	.
4A\	w Dro-	.	(8c\L	w dro-	.	4e/	w Dro-	.
.	.	.	8A\J)	.	.	.	.	.
8A\	-gę	.	8c\	-gę	.	8e/	-gę	.
=6	=6	=6	=6	=6	=6	=6	=6	=6
4A\	czas	.	[4.e\	czas	.	4e/	Czas	.
8A\	u-	.	.	.	.	8e/	u-	.
4A\	-cie-	.	4e\]	.	.	4e/	-cie-	.
8A\	-ka	.	8e\	już	.	8e/	-ka	.
!!LO:LB:g=original
=7	=7	=7	=7	=7	=7	=7	=7	=7
4A\	na-	.	(8e\L	w dro-	.	4e/	na-	.
.	.	.	8c\J)	.	.	.	.	.
8A\	-da-	.	8e\	-gę	.	8e/	-da-	.
4G#X\	-rem-	.	(8e\L	czas	.	4e/	-rem-	.
.	.	.	8B\J)	.	.	.	.	.
8G#\	-nie	.	8e\	już	.	8e/	-nie	.
=8	=8	=8	=8	=8	=8	=8	=8	=8
4A\	się	.	(8e\L	w dro-	.	4e/	się	.
.	.	.	8c\J)	.	.	.	.	.
8A\	Smu-	.	8e\	-gę	.	8e/	smu-	.
4G#X\	-ci-	.	(8e\L	czas	.	4e/	-ci-	.
.	.	.	8B\J)	.	.	.	.	.
8G#\	-cie	.	8e\	już	.	8e/	-cie	.
=9	=9	=9	=9	=9	=9	=9	=9	=9
4A\	Da-	.	4.e\	w dro-	.	4e/	da-	.
8A\	-lej	.	.	.	.	8e/	-lej	.
4A\	w dro-	.	8e\L	.	.	4e/	w Dro-	.
.	.	.	8c\J	.	.	.	.	.
8A\	-gę	.	8A/	-gę	.	8e/	-gę	.
!!LO:LB:g=original
=10	=10	=10	=10	=10	=10	=10	=10	=10
4E\	Czas	.	2.E/	czas	.	4e/	Czas	.
8E\	już	.	.	.	.	8e/	już	.
4E\	w Dro-	.	.	.	.	4d/	w Dro-	.
8E\	-gę	.	.	.	.	8d/	-gę	.
=11	=11	=11	=11	=11	=11	=11	=11	=11
4E\	Czas	.	2.E/	/czas	.	4c/	Czas	.
8E\	już	.	.	.	.	8c/	już	.
4E\	w dro-	.	.	.	.	4c/	w Dro-	.
8E\	-gę	.	.	.	.	8c/	-gę	.
=12	=12	=12	=12	=12	=12	=12	=12	=12
4E\	Czas	.	2.E/	czas/	.	2.e/	Czas	.
8E\	już	.	.	.	.	.	.	.
4E\	czas	.	.	.	.	.	.	.
8E\	da-	.	.	.	.	.	.	.
!!LO:PB:g=original
=13	=13	=13	=13	=13	=13	=13	=13	=13
4E\	-rem-	.	4E/	s	.	2.e/	.	.
8E\	-nie	.	4r	.	.	.	.	.
4E\	się	.	.	.	.	.	.	.
.	.	.	8r	.	.	.	.	.
8E\	Smu-	.	8r	.	.	.	.	.
=14	=14	=14	=14	=14	=14	=14	=14	=14
4A\	-ci-	.	2.r	.	.	4e/	s	.
8A\	-cie	.	.	.	.	8e/	na	.
4A\	pruż-	.	.	.	.	4e/	próż-	.
8A\	-no	.	.	.	.	8e/	-no	.
=15	=15	=15	=15	=15	=15	=15	=15	=15
4A\	się	.	4r	.	.	4e/	się	.
8A\	Smu-	.	8r	.	.	8e/	Smu-	.
4A\	-ci-	.	4r	.	.	4e/	-ci-	.
8A\	-cie	.	8E/	Hej	.	8e/	-cie	.
!!LO:LB:g=original
=16	=16	=16	=16	=16	=16	=16	=16	=16
4A\	Da-	.	4A/	da-	.	4e/	Da-	.
8A\	-lej	.	8A/	-lej	.	8e/	-lej	.
4A\	w dro-	.	(8c\L	w dro-	.	4e/	w Dro-	.
.	.	.	8A\J)	.	.	.	.	.
8A\	-gę	.	8c\	-gę	.	8e/	-gę	.
=17	=17	=17	=17	=17	=17	=17	=17	=17
4A\	Czas	.	[4.e\	czas	.	4e/	Czas	.
8A\	u-	.	.	.	.	8e/	u-	.
4A\	-cie-	.	4e\]	.	.	4e/	-cie-	.
8A\	-ka	.	8e\	już	.	8e/	-ka	.
=18	=18	=18	=18	=18	=18	=18	=18	=18
4G#X\	na-	.	(8e\L	w dro-	.	4e/	na-	.
.	.	.	8B\J)	.	.	.	.	.
8G#\	-da-	.	8e\	-gę	.	8e/	-da-	.
4A\	-rem-	.	(8e\L	czas	.	4e/	-rem-	.
.	.	.	8c\J)	.	.	.	.	.
8A\	-nie	.	8e\	już	.	8e/	-nie	.
!!LO:LB:g=original
=19	=19	=19	=19	=19	=19	=19	=19	=19
4G#X\	się	.	(8e\L	w dro-	.	4e/	się	.
.	.	.	8B\J)	.	.	.	.	.
8G#\	Smu-	.	8e\	-gę	.	8e/	smu-	.
4A\	-ci-	.	(8e\L	czas	.	4e/	-ci-	.
.	.	.	8c\J)	.	.	.	.	.
8A\	-cie	.	8e\	już	.	8e/	-cie	.
=20	=20	=20	=20	=20	=20	=20	=20	=20
4Gn\	Da-	.	[4.g\	w dro-	.	4e/	Da-	.
8G\	-lej	.	.	.	.	8e/	-lej	.
4G\	w Dro-	.	(8g\L]	.	.	4e/	w Dro-	.
.	.	.	8e\J)	.	.	.	.	.
8G\	-gę	.	8c\	-gę	.	8e/	-gę	.
=21	=21	=21	=21	=21	=21	=21	=21	=21
4G\	Czas	.	4G/	czas	.	4d/	czas	.
8G\	już	.	8B/	już	.	8d/	już	.
4G\	w Dro-	.	4d\	w dro-	.	4d/	w Dro-	.
8G\	-gę	.	8f\	-gę	.	8d/	-gę	.
!!LO:LB:g=original
=22	=22	=22	=22	=22	=22	=22	=22	=22
4C/	Czas	.	8e\	czas	.	8e/	czas	.
.	.	.	4r	.	.	4r	.	.
8C/	już	.	.	.	.	.	.	.
4C/	w dro-	.	4r	.	.	8r	.	.
.	.	.	.	.	.	4r	.	.
8C/	-gę	.	8r	.	.	.	.	.
=23	=23	=23	=23	=23	=23	=23	=23	=23
4C/	Czas	.	4r	.	.	4r	.	.
8C/	już	.	8r	.	.	8r	.	.
8C/	Czas	.	4r	.	.	4r	.	.
8r	.	.	.	.	.	.	.	.
8C/	da-	.	8e\	da-	.	8g/	da-	.
=24	=24	=24	=24	=24	=24	=24	=24	=24
4C/	-rem-	.	4e\	-rem-	.	4g/	-rem-	.
8C/	-nie	.	8d#X\	-nie	.	8f#X/	-nie	.
4C/	się	.	4d#\	się	.	4f#/	się	.
8C/	Smu-	.	8e\	smu-	.	8g/	Smu-	.
!!LO:PB:g=original
=25	=25	=25	=25	=25	=25	=25	=25	=25
4.C/	-ci-	.	4.e\	-ci-	.	4.g/	-ci-	.
8C/	-cie	.	8c\	-cie	.	8e/	-cie	.
8r	.	.	8r	.	.	8r	.	.
8C/	tu	.	8G/	tu	.	8e/	tu	.
=26	=26	=26	=26	=26	=26	=26	=26	=26
4.C/	ra-	.	4.A/	ra-	.	4.f/	ra-	.
4.C/	-dość	.	4.G/	-dość	.	4.e/	-dość	.
=27	=27	=27	=27	=27	=27	=27	=27	=27
4G\	cze-	.	4d\	cze-	.	4f/	cze-	.
8G\	-ka	.	8d\	-ka	.	8f/	-ka	.
8C/	was	.	8c\	was	.	8e/	was	.
8r	.	.	8r	.	.	8r	.	.
8C/	da-	.	8e\	da-	.	8g/	da-	.
=	=	=	=	=	=	=	=	=
4C/	-rem-	.	4e\	-re-	.	4g/	-rem-	.
8C/	-nie	.	8d#X\	-mnie	.	8f#X/	-nie	.
!!LO:LB:g=original
=28-	=28-	=28-	=28	=28	=28	=28	=28	=28
4C/	się	.	4d#X\	się	.	4f#X/	się	.
8C\	Smu-	.	8e\	smu-	.	8g/	Smu-	.
=29	=29	=29	=29	=29	=29	=29	=29	=29
4.C\	-ci-	.	4.e\	-ci-	.	4.g/	-ci-	.
8E\	-cie	.	8c\	-cie	.	8e/	-cie	.
8r	.	.	8r	.	.	8r	.	.
8E\	tu	.	8c\	tu	.	8g/	tu	.
=30	=30	=30	=30	=30	=30	=30	=30	=30
4F\	ra-	.	4c\	ra-	.	4a/	ra-	.
8F\	-dość	.	8B\	-dość	.	8g#X/	-dość	.
4F\	cze-	.	4A\	cze-	.	4a/	cze-	.
8F\	-ka	.	8A\	-ka	.	8a/	-ka	.
=31	=31	=31	=31	=31	=31	=31	=31	=31
4.E\	was	.	4.B\	was	.	4.g#X/	was	.
!	!	!LO:DY:b:rj	!	!	!LO:DY:b:rj	!	!	!LO:DY:b:rj
8c\	tu	f	8c\	tu	f	8cc\	tu	f
8B\	cze-	.	8B\	cze-	.	8b\	cze-	.
8A\	-ka	.	8A\	-ka	.	8a\	-ka	.
!!LO:LB:g=original
=32	=32	=32	=32	=32	=32	=32	=32	=32
4.E\	was	.	4.E/	was	.	4.e/	was	.
8c\	tu	.	8c\	tu	.	8cc\	tu	.
8B\	cze-	.	8B\	cze-	.	8b\	cze-	.
8A\	-ka	.	8A\	-ka	.	8a\	-ka	.
=33	=33	=33	=33	=33	=33	=33	=33	=33
4E\	was	.	4E/	was	.	4e/	was	.
8r	.	.	8r	.	.	8r	.	.
4r	.	.	4r	.	.	4r	.	.
8r	.	.	8r	.	.	8r	.	.
=34	=34	=34	=34	=34	=34	=34	=34	=34
4r	.	.	4r	.	.	4r	.	.
8r	.	.	8r	.	.	8r	.	.
4r	.	.	4r	.	.	4r	.	.
8A\	Tu	.	8E/	Tu	.	8e/	tu	.
!!LO:LB:g=original
=35||	=35||	=35||	=35||	=35||	=35||	=35||	=35||	=35||
*k[f#c#g#]	*	*	*k[f#c#g#]	*	*	*k[f#c#g#]	*	*
4A\	pew-	.	4A\	pew-	.	4cc#\	pew-	.
8A\	-na	.	8c#\	-na	.	8a\	-na	.
4A\	ra-	.	4A/	ra-	.	4cc#\	ra-	.
8A\	-dość	.	8E/	-dość	.	8cc#\	-dość	.
=36	=36	=36	=36	=36	=36	=36	=36	=36
4A\	cze-	.	4A\	cze-	.	4cc#\	cze-	.
8A\	-ka	.	8c#\	-ka	.	8a\	-ka	.
4A\	was	.	4e\	was	.	4cc#\	was	.
8A\	Gdy	.	8e\	Gdy	.	8a\	gdy	.
=37	=37	=37	=37	=37	=37	=37	=37	=37
4E\	z Fran-	.	(8e\L	z Fran-	.	4g#/	z Fran-	.
.	.	.	8B\J)	.	.	.	.	.
8E\	-cyi	.	8e\	-cyi	.	8g#/	-cyi	.
4E\	po-	.	(8e\L	po-	.	4g#/	po-	.
.	.	.	8B\J)	.	.	.	.	.
8E\	-wru-	.	8e\	-wró-	.	8g#/	-wró-	.
!!LO:PB:g=original
=38	=38	=38	=38	=38	=38	=38	=38	=38
4A\	-ci-	.	(8e\L	-ci-	.	4a/	-ci-	.
.	.	.	8c#\J)	.	.	.	.	.
8A\	-cie	.	8f#\	-cie	.	8a/	-cie	.
4A\	tak	.	4e\	tak	.	4a/	tak	.
8A\	tu	.	8E/	tu	.	8a/	tu	.
=39	=39	=39	=39	=39	=39	=39	=39	=39
4A\	pew-	.	4A\	pew-	.	4e/	pew-	.
8A\	-na	.	8c#\	-na	.	8e/	-na	.
4A\	ra-	.	4A/	ra-	.	4e/	ra-	.
8A\	-dość	.	8E/	-dość	.	8e/	-dość	.
=40	=40	=40	=40	=40	=40	=40	=40	=40
4A\	cze-	.	4A\	cze-	.	4a/	cze-	.
8A\	-ka	.	8c#\	-ka	.	8a/	-ka	.
4A\	was	.	4e\	was	.	4e/	was	.
8A\	Gdy	.	8e\	gdy	.	8c#/	gdy	.
!!LO:LB:g=original
=41	=41	=41	=41	=41	=41	=41	=41	=41
4E\	z Fran-	.	(8e\L	z Fran-	.	4B/	z Fran-	.
.	.	.	8d\J)	.	.	.	.	.
8E\	-cyi	.	8c#\	-cyi	.	8c#/	-cyi	.
4E\	po-	.	(8B/L	po-	.	4d/	po-	.
.	.	.	8A/J)	.	.	.	.	.
8E\	-wró-	.	8G#/	-wró-	.	8d/	-wró-	.
=42	=42	=42	=42	=42	=42	=42	=42	=42
8A\	-ci-	.	8A/	-ci-	.	8c#/	-ci-	.
8A\	-cie	.	8A/	-cie	.	8a/	-cie	.
8A\	a	.	8r	.	.	8a/	a	.
8A\	więc	.	8r	.	.	8a/	więc	.
8A\	do-	.	8A/	do-	.	8a/	do-	.
8A\	-wi-	.	8A/	-wi-	.	8a/	-wi-	.
=43	=43	=43	=43	=43	=43	=43	=43	=43
*2\right	*	*	*2\right	*	*	*2\right	*	*
!	!	!LO:DY:b:rj	!	!	!LO:DY:b:rj	!	!	!
2.d\	-dze-	f	2.a\	-dze-	f	2.dd\	-dze-	.
!!LO:LB:g=original
=44	=44	=44	=44	=44	=44	=44	=44	=44
4A\	-nia	.	4A/	-nia	.	4cc#\	-nia	.
8r	.	.	8r	.	.	8r	.	.
8r	.	.	8r	.	.	8r	.	.
!	!	!LO:DY:b:rj	!	!	!LO:DY:b:rj	!	!	!LO:DY:b:rj
8A\	do-	p	8A/	do-	p	8a/	do-	p
8A\	-wi-	.	8A/	-wi-	.	8a/	-wi-	.
=45	=45	=45	=45	=45	=45	=45	=45	=45
2.D/	-dze-	.	2.f\	-dze-	.	2.d/	-dze-	.
=46	=46	=46	=46	=46	=46	=46	=46	=46
4A\	-nia	.	4e\	-nia	.	4c#/	-nia.	.
8r	.	.	8r	.	.	8r	.	.
4r	.	.	4c#\	w krót-	.	4r	.	.
8r	.	.	8d\	-ce	.	8r	.	.
=47	=47	=47	=47	=47	=47	=47	=47	=47
!	!	!	!	!	!	!LO:TX:a:t=1.	!	!
2.r	.	.	4e\	się	.	2.r	.	.
.	.	.	8c#\	zo-	.	.	.	.
.	.	.	4A/	-ba-	.	.	.	.
.	.	.	8B/	-czym	.	.	.	.
!!LO:LB:g=original
=48	=48	=48	=48	=48	=48	=48	=48	=48
4r	.	.	4c#\	Mo-	.	4r	.	.
8r	.	.	8A\	-że	.	8r	.	.
4E\	Szczęść	.	4E/	Szczęść	.	4e/	Szczęść	.
8A\	wam	.	(16A/LL	wam	.	8a/	wam	.
.	.	.	16c#/JJ)	.	.	.	.	.
=49	=49	=49	=49	=49	=49	=49	=49	=49
2.E\	Bo-	.	(4.e\	Bo-	.	(4.a/	Bo-	.
.	.	.	4.d\)	.	.	4.g#/)	.	.
=50	=50	=50	=50	=50	=50	=50	=50	=50
8A\	-że	.	4c#\	-że	.	8a/	-że	.
8A\	a	.	.	.	.	8a/	a	.
8A\	więc	.	8r	.	.	8a/	więc	.
4A\	do-	.	8r	.	.	4a/	do-	.
.	.	.	8A/	do-	.	.	.	.
8A\	-wi-	.	8A/	-wi-	.	8a/	-wi-	.
=51	=51	=51	=51	=51	=51	=51	=51	=51
!	!	!	!	!	!	!	!	!LO:DY:b:rj
2.d\	-dze-	.	2.a\	-dze-	.	2.dd\	-dze-	f
!!LO:PB:g=original
=52	=52	=52	=52	=52	=52	=52	=52	=52
4A\	-nia	.	4A/	-nia	.	4cc#\	-nia.	.
8r	.	.	8r	.	.	8r	.	.
8r	.	.	8r	.	.	8r	.	.
!	!	!	!	!	!LO:DY:b:rj	!	!	!LO:DY:b:rj
8A\	do-	.	8A/	do-	p	8a/	do-	p
8A\	-wi-	.	8A/	-wi-	.	8a/	-wi-	.
=53	=53	=53	=53	=53	=53	=53	=53	=53
2.D\	-dze-	.	2.f\	-dze-	.	2.d/	-dze-	.
=54	=54	=54	=54	=54	=54	=54	=54	=54
4AA/	-nia	.	8e\	-nia	.	4c#/	-nia	.
.	.	.	8r	.	.	.	.	.
8r	.	.	8r	.	.	8r	.	.
4r	.	.	4c#\	w krót-	.	4r	.	.
8r	.	.	8d\	-ce	.	8r	.	.
=55	=55	=55	=55	=55	=55	=55	=55	=55
!LO:TX:a:t=1.	!	!	!	!	!	!LO:TX:a:t=1.	!	!
2.r	.	.	4e\	się	.	2.r	.	.
.	.	.	8c#\	zo-	.	.	.	.
.	.	.	4A/	-ba-	.	.	.	.
.	.	.	8B\	-czym	.	.	.	.
!!LO:LB:g=original
=56	=56	=56	=56	=56	=56	=56	=56	=56
4r	.	.	4c#\	Mo-	.	4r	.	.
8r	.	.	8A\	-że	.	8r	.	.
4E\	Szczęść	.	4E/	Szczęść	.	4e/	Szczęść	.
8A\	wam	.	(16A/LL	wam	.	8a/	wam	.
.	.	.	16c#/JJ)	.	.	.	.	.
=57	=57	=57	=57	=57	=57	=57	=57	=57
[2.E\	Bo-	.	(2.e\	Bo-	.	2.a\	Bo-	.
=58	=58	=58	=58	=58	=58	=58	=58	=58
2.E\]	.	.	2.d\)	.	.	4.a/	.	.
.	.	.	.	.	.	4.g#/	.	.
=59	=59	=59	=59	=59	=59	=59	=59	=59
2.A\	.	.	2.c#\	.	.	[2.e/	.	.
=60	=60	=60	=60	=60	=60	=60	=60	=60
2.A\	.	.	4c#\	.	.	2.e/]	.	.
.	.	.	8e\	.	.	.	.	.
.	.	.	4c#\	.	.	.	.	.
.	.	.	8A/	.	.	.	.	.
!!LO:LB:g=original
=61	=61	=61	=61	=61	=61	=61	=61	=61
2.A\	.	.	[2.c#\	.	.	[2.e/	.	.
=62	=62	=62	=62	=62	=62	=62	=62	=62
[2.A\	.	.	4c#\]	.	.	2.e/]	.	.
.	.	.	8e\	.	.	.	.	.
.	.	.	4c#\	.	.	.	.	.
.	.	.	8A/	.	.	.	.	.
=63	=63	=63	=63	=63	=63	=63	=63	=63
4A\]	.	.	4E/	.	.	4c#/	.	.
8AA/	-że	.	8E/	-że	.	8c#/	-że	.
4AA/	nie-	.	4E/	nie-	.	4c#/	nie-	.
8AA/	-chaj	.	8E/	-chaj	.	8c#/	-chaj	.
=64	=64	=64	=64	=64	=64	=64	=64	=64
4AA/	Bóg	.	4E/	Bóg	.	4c#/	Bóg	.
8AA/	pro-	.	8E/	pro-	.	8c#/	pro-	.
4AA/	-wa-	.	4E/	-wa-	.	4c#/	-wa-	.
8AA/	-dzi	.	8E/	-dzi	.	8c#/	-dzi	.
!!LO:LB:g=original
=65	=65	=65	=65	=65	=65	=65	=65	=65
2.AA;/	was	.	2.E;/	.	.	2.c#;/	was.	.
==	==	==	==	==	==	==	==	==
*-	*-	*-	*-	*-	*-	*-	*-	*-
!!!system-decoration: (s1,s2,s3)
!!!RDF**kern: > = above
!!!RDF**kern: < = below
!!!AIN: 1 alto 1 empty 1 tenor
!!!ENC: Marcin Jachim
!!!END: 2021-08-06
!!!ENC: Leszek Kubiak
!!!END: 2021-09-08
